packages/bezier-icons/icons/cart.svg

<svg width="24" height="24" viewBox="0 0 24 24" fill="none" xmlns="http://www.w3.org/2000/svg">
<path fill-rule="evenodd" clip-rule="evenodd" d="M2 5H4.77471L5.71021 13.4406C5.93479 15.4668 7.64725 17 9.68587 17H16.3149C18.3531 17 20.0653 15.4675 20.2904 13.4417L20.8705 8.22086C21.0021 7.03613 20.0748 6 18.8827 6H6.89779L6.76254 4.77968C6.65025 3.76658 5.79402 3 4.77471 3H2V5ZM7.69804 13.2203L7.11946 8H18.8827L18.3026 13.2209C18.1901 14.2337 17.334 15 16.3149 15H9.68587C8.66656 15 7.81033 14.2334 7.69804 13.2203ZM8.00018 18.0001C6.90018 18.0001 6.00018 18.9001 6.00018 20.0001C6.00018 21.1001 6.90018 22.0001 8.00018 22.0001C9.10018 22.0001 10.0002 21.1001 10.0002 20.0001C10.0002 18.9001 9.10018 18.0001 8.00018 18.0001ZM18.0002 18.0001C16.9002 18.0001 16.0002 18.9001 16.0002 20.0001C16.0002 21.1001 16.9002 22.0001 18.0002 22.0001C19.1002 22.0001 20.0002 21.1001 20.0002 20.0001C20.0002 18.9001 19.1002 18.0001 18.0002 18.0001Z" fill="#313234"/>
</svg>

<svg xmlns="http://www.w3.org/2000/svg" width="24" height="24" fill="none" viewBox="0 0 24 24"><path fill="#313234" fill-rule="evenodd" d="M2 5h2.775l.935 8.44A4 4 0 0 0 9.686 17h6.629a4 4 0 0 0 3.975-3.558l.58-5.221A2 2 0 0 0 18.883 6H6.898l-.135-1.22A2 2 0 0 0 4.775 3H2zm5.698 8.22L7.119 8h11.764l-.58 5.22A2 2 0 0 1 16.315 15h-6.63a2 2 0 0 1-1.987-1.78M8 18c-1.1 0-2 .9-2 2s.9 2 2 2 2-.9 2-2-.9-2-2-2m10 0c-1.1 0-2 .9-2 2s.9 2 2 2 2-.9 2-2-.9-2-2-2" clip-rule="evenodd"/></svg>
